X:256
T: Zhai chazi
N: C0402
O: China,Jiangxi, Yongxin
S: IV, 209]
N: zum Holzsammeln, Kinder auf dem Ruecken); Modus Jiao = selten
N: Saengerin: Huang Bai am 28.4.87, wieder erkaeltet)
N: Vereinzelt Verzierungen, Glissandi. vgl. auch Komment. der +++ Doublette.
R: Shange. Xin minge]
M: 2/4
L: 1/16
K: Bb
b2g2b2g2 | ddzdc2z2 |
b2g2f2d2 | b2g2f2d2 |
g2d2b2bg | d2d2b4 | g3db4 |
ggggf2dz | ggggf2z2

@@@ Tune index: 6257
